svg/water.svg

<svg xmlns="http://www.w3.org/2000/svg" viewBox="0 0 100 100">
  <path d="M94 24H6v4H0v72h100V28h-6v-4Z"/>
  <path fill="currentColor" d="M32 37h34v5h16v4h7v4h3v2h5v9h-3v18h-3v3h-9v-3h-4v-3h-6v3h-5v3h-4v2H15v-3h-5v-6H3V57h7v-9h9v-5h13v-6Z"/>
</svg>

<svg width="100" height="100" viewBox="0 0 100 100" fill="none" xmlns="http://www.w3.org/2000/svg">
<path d="M94 24H6V28H0V100H100V28H94V24Z" fill="black"/>
<path d="M32 37H66V42H82V46H89V50H92V52H97V61H94V79H91V82H82V79H78V76H72V79H67V82H63V84H15V81H10V75H3V57H10V48H19V43H32V37Z" fill="#5DA6DC"/>
</svg>
